public/topics/40.svg

<svg width="250" height="250" viewBox="0 0 250 250" fill="none" xmlns="http://www.w3.org/2000/svg">
<rect width="250" height="250" rx="30" fill="#CC8899"/>
<path d="M50.2 75C50.2 81.5333 49 89.1333 46.6 97.8C44.3333 106.333 41 116.867 36.6 129.4L32 143.2C34.2667 143.6 36.6 143.8 39 143.8C43.1333 143.8 49.3333 143.4 57.6 142.6C65.8667 141.8 71.8 141.4 75.4 141.4L75.2 119.4C74.9333 104.2 74.8 93 74.8 85.8C74.8 76.3333 77.9333 71.6 84.2 71.6C89.1333 71.6 92.2667 72.8667 93.6 75.4C95.0667 77.9333 95.8 81.7333 95.8 86.8C95.8 92 95.4 100.067 94.6 111C94.4667 113.133 94.2667 116.667 94 121.6C93.7333 126.533 93.6 130.8 93.6 134.4L93.8 140.8L97.8 140.6C101 140.333 103.467 140.2 105.2 140.2C108.4 140.2 111.467 141.267 114.4 143.4C117.333 145.4 118.8 147.8 118.8 150.6C118.8 153.933 118.267 156.533 117.2 158.4C116.267 160.267 115.133 161.2 113.8 161.2C111.533 161.2 108.667 160.933 105.2 160.4C104.4 160.4 103.2 160.333 101.6 160.2C100 159.933 98.4667 159.8 97 159.8L93.6 160L93.8 187C93.8 189.8 92.8667 191.933 91 193.4C89.1333 194.867 87 195.6 84.6 195.6C81.6667 195.6 79.0667 194.667 76.8 192.8C74.5333 190.933 73.4 188.6 73.4 185.8C73.4 176.867 73.5333 169.867 73.8 164.8C73.9333 163.6 74 162.133 74 160.4C70 160.267 63.0667 160.733 53.2 161.8C43.8667 162.867 36.8 163.4 32 163.4C25.8667 163.4 20.6667 162.533 16.4 160.8C12.2667 159.067 10.2 156.333 10.2 152.6C10.2 149 10.9333 144.6 12.4 139.4C13.8667 134.2 16.0667 127.2 19 118.4C20.3333 114.933 21.3333 112.067 22 109.8C24.4 103 26.2 97.2667 27.4 92.6C28.6 87.8 29.9333 82 31.4 75.2C31.9333 73.0667 33.0667 71.4667 34.8 70.4C36.5333 69.3333 38.5333 68.8 40.8 68.8C43.2 68.8 45.3333 69.4 47.2 70.6C49.2 71.6667 50.2 73.1333 50.2 75ZM220.917 82.2C225.317 89 228.851 96.8 231.517 105.6C234.184 114.267 235.517 123.133 235.517 132.2C235.517 143 233.651 153.267 229.917 163C226.317 172.733 220.851 180.667 213.517 186.8C206.317 192.933 197.517 196 187.117 196C177.384 196 168.451 193.533 160.317 188.6C152.184 183.533 146.051 177.667 141.917 171C138.851 166.067 136.517 160.533 134.917 154.4C133.317 148.133 132.517 141.867 132.517 135.6C132.517 124.667 134.784 114 139.317 103.6C143.984 93.2 150.384 84.8667 158.517 78.6C166.251 72.8667 175.117 70 185.117 70C196.184 70 208.117 74.0667 220.917 82.2ZM167.317 96C166.117 98 164.917 99.8 163.717 101.4C160.784 105.8 158.651 109.533 157.317 112.6C155.984 115.533 154.784 120.067 153.717 126.2C153.184 129 152.917 132.267 152.917 136C152.917 145.467 154.784 153.667 158.517 160.6C162.384 167.4 167.651 172 174.317 174.4C177.517 175.6 181.117 176.2 185.117 176.2C195.117 176.2 202.651 171.8 207.717 163C212.917 154.067 215.517 143.067 215.517 130C215.517 117.867 213.251 107.933 208.717 100.2C204.184 92.3333 197.184 88.4 187.717 88.4C183.851 88.4 180.517 89 177.717 90.2C175.051 91.4 171.584 93.3333 167.317 96Z" fill="white"/>
</svg>

<svg xmlns="http://www.w3.org/2000/svg" width="250" height="250" fill="none" viewBox="0 0 250 250"><rect width="250" height="250" fill="#c89" rx="30"/><path fill="#fff" d="M50.2 75q0 9.8-3.6 22.8-3.4 12.8-10 31.6L32 143.2q3.4.6 7 .6 6.2 0 18.6-1.2t17.8-1.2l-.2-22q-.4-22.8-.4-33.6 0-14.2 9.4-14.2 7.4 0 9.4 3.8 2.2 3.8 2.2 11.4 0 7.8-1.2 24.2a1441 1441 0 0 0-.6 10.6q-.4 7.4-.4 12.8l.2 6.4 4-.2q4.8-.4 7.4-.4 4.8 0 9.2 3.2 4.4 3 4.4 7.2 0 5-1.6 7.8-1.4 2.8-3.4 2.8-3.4 0-8.6-.8-1.2 0-3.6-.2a28 28 0 0 0-4.6-.4l-3.4.2.2 27q0 4.2-2.8 6.4t-6.4 2.2q-4.4 0-7.8-2.8t-3.4-7q0-13.4.4-21 .2-1.8.2-4.4-6-.2-20.8 1.4-14 1.6-21.2 1.6-9.2 0-15.6-2.6-6.2-2.6-6.2-8.2 0-5.4 2.2-13.2t6.6-21q2-5.2 3-8.6 3.6-10.2 5.4-17.2 1.8-7.2 4-17.4.8-3.2 3.4-4.8t6-1.6q3.6 0 6.4 1.8 3 1.6 3 4.4m170.717 7.2q6.6 10.2 10.6 23.4a90 90 0 0 1 4 26.6q0 16.2-5.6 30.8-5.4 14.6-16.4 23.8-10.8 9.2-26.4 9.2-14.6 0-26.8-7.4-12.2-7.6-18.4-17.6-4.6-7.4-7-16.6-2.4-9.4-2.4-18.8 0-16.4 6.8-32 7-15.6 19.2-25 11.6-8.6 26.6-8.6 16.6 0 35.8 12.2m-53.6 13.8q-1.8 3-3.6 5.4-4.4 6.6-6.4 11.2-2 4.4-3.6 13.6-.8 4.2-.8 9.8 0 14.2 5.6 24.6 5.8 10.2 15.8 13.8 4.8 1.8 10.8 1.8 15 0 22.6-13.2 7.8-13.4 7.8-33 0-18.2-6.8-29.8-6.8-11.8-21-11.8-5.8 0-10 1.8-4 1.8-10.4 5.8"/></svg>
